src/assets/icon-hamburger.svg

<svg xmlns="http://www.w3.org/2000/svg" xmlns:xlink="http://www.w3.org/1999/xlink" viewBox="0 0 32 40" version="1.1" x="0px" y="0px"><title>hamburger, List, menu, website</title><desc>Created with Sketch.</desc><g stroke="none" stroke-width="1" fill="none" fill-rule="evenodd"><path d="M4.92307692,17.0000589 C4.37079217,17.0000589 3.92307692,16.5523436 3.92307692,16.0000589 C3.92307692,15.4477741 4.37079217,15.0000589 4.92307692,15.0000589 L27.0769231,15.0000589 C27.6292078,15.0000589 28.0769231,15.4477741 28.0769231,16.0000589 C28.0769231,16.5523436 27.6292078,17.0000589 27.0769231,17.0000589 L4.92307692,17.0000589 Z M5,25.0000589 C4.44771525,25.0000589 4,24.5523436 4,24.0000589 C4,23.4477741 4.44771525,23.0000589 5,23.0000589 L27.08,23.0000589 C27.6322847,23.0000589 28.08,23.4477741 28.08,24.0000589 C28.08,24.5523436 27.6322847,25.0000589 27.08,25.0000589 L5,25.0000589 Z M5,9.00005885 C4.44771525,9.00005885 4,8.5523436 4,8.00005885 C4,7.4477741 4.44771525,7.00005885 5,7.00005885 L27.08,7.00005885 C27.6322847,7.00005885 28.08,7.4477741 28.08,8.00005885 C28.08,8.5523436 27.6322847,9.00005885 27.08,9.00005885 L5,9.00005885 Z" fill="#000000" fill-rule="nonzero"/></g></svg>

<?xml version="1.0" encoding="utf-8"?>
<!-- Generator: Adobe Illustrator 22.1.0, SVG Export Plug-In . SVG Version: 6.00 Build 0)  -->
<svg version="1.1" id="Layer_1" xmlns="http://www.w3.org/2000/svg" xmlns:xlink="http://www.w3.org/1999/xlink" x="0px" y="0px"
	 viewBox="0 0 32 32" style="enable-background:new 0 0 32 32;" xml:space="preserve">
<title>hamburger, List, menu, website</title>
<desc>Created with Sketch.</desc>
<g>
	<path d="M4.9,17c-0.6,0-1-0.4-1-1c0-0.6,0.4-1,1-1h22.2c0.6,0,1,0.4,1,1c0,0.6-0.4,1-1,1H4.9z M5,25c-0.6,0-1-0.4-1-1s0.4-1,1-1
		h22.1c0.6,0,1,0.4,1,1s-0.4,1-1,1H5z M5,9C4.4,9,4,8.6,4,8c0-0.6,0.4-1,1-1h22.1c0.6,0,1,0.4,1,1c0,0.6-0.4,1-1,1H5z"/>
</g>
</svg>
